!!!ONB: MCCC : IJH0459_02 : Extracted Monophonic Melody
!!!COM: Haydn, Joseph
!!!OPR: String Quartet in G major
!!!OMV: 2
!!!SCT: Hob.III:4 ; Op.1 No.4
!!!ODT: 1757///
**kern
*thru
*k[b-e-]
*g:
*clefF
*M3/4
2gg
12aa
12gg
12ff#
=1
4gg
4dd
4dd#
=2
2ee
12gg
12ff#
12ee
=3
4dd
2r
=4
12cc
12dd
12cc
4aa
4r
=5
12b
12cc
12b
4dd
4r
=6
4a
4g
4f#
=7
4g
2r
=8
2bb
12ddd
12ccc#
12bb
=9
4aa
4fff#
4aa
=10
4aa
4gg
8gg
8ff#
=11
2ee
4r
=12
2.aa
=13
2.aa
=14
2.aa[
=15
2.aa]
=16
4aa
4f#
4e
=17
2d
4r
=18
2gg
12aa
12gg
12ff
=19
4ff
8ee
8dd
8cc
8b
=20
8a
8b
8cc
8dd
8dd#
8ee
=21
2f#
4r
=22
2gg
12aa
12gg
12ff#
=23
4gg
4dd
4dd#
=24
2ee
12gg
12ff#
12ee
=25
4dd
2r
=26
12cc
12dd
12cc
4aa
4r
=27
12b
12cc
12b
4dd
4r
=28
4a
4g
4f#
=29
2.g
=30
2.r
=31
4r
4aa
4ff#
=32
4gg
2r
=33
4r
4aa
4ff#
=34
4gg
2r
=35
2.r
=36
2.bb-
=37
2aa
8ccc
8ee-
=38
4dd
2bb-
=39
2aa
8ccc
8ee-
=40
8dd
8d
8e-
8cc
8f
8a
=41
4B-
2r
=42
2.bb-
=43
4bb-
2aa
=44
4aa
2gg
=45
4gg
4ff#
4r
=46
2.r
=47
4r
4aa
4ff#
=48
4gg
2r
=49
4r
4aa
4ff#
=50
4gg
2r
=51
2.r
=52
2.ff#
=53
8gg
8dd
2dd
=54
2.ff#
=55
8gg
8dd
2dd
=56
8ee-
8cc
8b-
8g
8d
8f#
=57
4G
2r
==
*-
